!!!!SEGMENT: pl-wtm--r-2039--002_smietanski-emil-wladyslaw--doppelfuge.krn
!!!cenid: 18xx:2025
!!!COM: Śmietański, Emil Władysław
!!!COM-rismID: pe50041781
!!!CDT: 1845-1886
!!!CNT: Polish
!!!OTL: Doppelfuge
!!!PDT:
!!!AGN: Secular; Fugue
!!!SMS-siglum: PL-Wtm
!!!SMS-shelfmark: R 2039
!!!SMS-shelfwork: 002 W
!!!SMS-variant:
!!!SMS-altvar:
!!!NIFC-rismSourceID: 1001111531
!!!NIFC-islandoraID:
!!!URL-pdf-islandora:
!!!URL-scan:
!!!ONB-nifc: UWAGA: skan 0005-0006, str. 135-137
!!!AIN: 1 forte
!!!key:
**kern	**kern
*part1	*part1
*staff2	*staff1
*Iforte	*Iempty
*I"Fortepian	*
*I'Fortepian	*
*clefF4	*clefG2
*k[]	*k[]
*C:	*C:
*M2/2	*M2/2
*met(c|)	*met(c|)
=1	=1
*	*2\right
!	!LO:TX:a:B:t=Doppelfuge (Smietanski)
1ryy	2g\
.	2cc\
=2	=2
1ryy	2b\
.	2b-X\
=3	=3
1ryy	2a\
.	4g\
.	4f\
=4	=4
*	*^
1ryy	2cc/	4e\
.	.	4cc\
.	2gg/	4b\
.	.	4cc#X\
=5	=5	=5
1ryy	2ff#X/	4dd\
.	.	8ccn\L
.	.	8b\J
.	2ffn/	4a\
.	.	4b\
=6	=6	=6
1ryy	2ee/	4cc\
.	.	4e\
.	4dd/	4f#X\
.	4cc/	8e\L
.	.	8f#\J
!!LO:LB:g=original
=7	=7	=7
*^	*	*
*	*2\right	*	*
1ryy	2G\	4b/	4g\
.	.	8a/L	4fn\
.	.	8b/J	.
.	2c\	4cc/	4e\
.	.	4a/	4e-X\
=8	=8	=8	=8
1ryy	2B\	2.g/	8d\L
.	.	.	8g\
.	.	.	8f\
.	.	.	8e\J
.	2B-X\	.	4d\
.	.	[4cc/	4e\
=9	=9	=9	=9
1ryy	2A\	8cc/L]	4.f\
.	.	8cc#X/	.
.	.	8dd/	.
.	.	8ccn/J	8f#X\
.	4G\	8b/L	[2g\
.	.	16cc/L	.
.	.	16b/J	.
.	4F\	8a/	.
.	.	8b/J	.
=10	=10	=10	=10
2c/	4E\	4cc/	2g\]
.	4c\	4ee/	.
2g/	4B\	4dd/	2rc
.	[4e\	8cc/L	.
.	.	8b/J	.
=11	=11	=11	=11
2f#X/	4e\]	4a/	1rc
.	2d\	8b/L	.
.	.	8cc/J	.
2fn/	.	2dd/	.
.	8A\L	.	.
.	8B\J	.	.
=12	=12	=12	=12
2e/	4c\	8g/L	1rc
.	.	8gg/	.
.	8C\L	8aa/	.
.	8C#X\J	8gg/J	.
4d/	[2D\	4ff#X/	.
4c/	.	8ee/L	.
.	.	8ff#/J	.
=13	=13	=13	=13
2B/	4D\]	[1gg/	2g\
.	8E\L	.	.
.	8F\J	.	.
4c/	4E\	.	2cc\
4e/	4C\	.	.
!!LO:LB:g=original
=14	=14	=14	=14
4d/	[1G\	4gg/]	2b\
[4g/	.	8ff/L	.
.	.	8ee/J	.
8g/L]	.	4dd/	2b-X\
8f/	.	.	.
8e/	.	[4ee/	.
8d/J	.	.	.
=15	=15	=15	=15
4c#X/	4G\]	8ee/L]	2a\
.	.	8a/	.
8d/L	8F\L	8dd/	.
8e-X/J	8F#X\J	8cc/J	.
2d/	[2G\	4b/	4g\
.	.	8a/L	4f\
.	.	8b/J	.
=16	=16	=16	=16
2c/	8G\L]	4cc/	4e\
.	8C\J	.	.
.	[4F\	4raa	[4a\
2c#X/	8F\L]	2raa	8a\L]
.	8E\	.	8g\
.	8A\	.	8f\
.	8G\J	.	8e\J
=17	=17	=17	=17
2A/	8F\L	1raa	4d\
.	16G\L	.	.
.	16F\J	.	.
.	8E\	.	8e\L
.	8D\J	.	8f\J
4G#X/	4E\	.	2e\
8F#X/L	4D\	.	.
8G#/J	.	.	.
=18	=18	=18	=18
4A/	2C\	2ee/	4e\
4c/	.	.	4a\
2d/	2E\	2b/	4g#X\
.	.	.	8f#X\L
.	.	.	8g#\J
=19	=19	=19	=19
4c/	2AA\	2cc/	4a\
8e/L	.	.	4rc
8f/J	.	.	.
2e/	8A\L	2cc#X/	2rc
.	8B-X\	.	.
.	8A\	.	.
.	8G\J	.	.
!!LO:LB:g=original
=20	=20	=20	=20
4A/	2F\	2dd/	1rc
8B/L	.	.	.
8A/J	.	.	.
2G#X/	4E\	4ee/	.
.	4D\	4ff/	.
=21	=21	=21	=21
4A/	4C\	2ee/	2e\
4C/	4AA\	.	.
2D/	2BB\	4g#X/	2B\
.	.	8f#X/L	.
.	.	8g#/J	.
=22	=22	=22	=22
8C/L	1AA\	[2a/	2c\
8E/	.	.	.
8F/	.	.	.
8E/J	.	.	.
4A/	.	8a/L]	2c#X\
.	.	8e/	.
4G/	.	8f/	.
.	.	8e/J	.
=23	=23	=23	=23
2F/	2D\	8d/L	2d\
.	.	8dd/	.
.	.	8cc/	.
.	.	8b-X/J	.
4E/	4C#X\	4a/	4e\
4F/	[4D\	8b-/L	4f\
.	.	8a/J	.
=24	=24	=24	=24
4.E/	4D\]	4g#X/	8B\L
.	.	.	8f\
.	8C\L	2a/	8e\
8F/	8D\J	.	8d\J
[2E/	4E\	.	4c\
.	4EE\	4g#/	4B\
=25	=25	=25	=25
4E/]	1AA\	2a/	2c\
8F/L	.	.	.
8E/J	.	.	.
4A/	.	2e/	2c#X\
4G/	.	.	.
=26	=26	=26	=26
4F/	4D\	2f/	2d\
4rc	8C\L	.	.
.	8BB-X\J	.	.
2rc	4AA\	2f#X/	4cn\
.	8BB-\L	.	8d\L
.	8AA\J	.	8c\J
!!LO:LB:g=original
=27	=27	=27	=27
1rc	2.GG\	4g/	2.B-X\
.	.	8f/L	.
.	.	8e/J	.
.	.	4d/	.
.	4C\	4e/	8A\L
.	.	.	8G\J
=28	=28	=28	=28
2A/	4FF\	4f/	4A\
.	4rEE	4cc/	8f\L
.	.	.	8e\J
2d/	2rEE	4b-X/	4f\
.	.	4bn/	8g\L
.	.	.	8f\J
=29	=29	=29	=29
2c/	1rEE	4cc/	4e\
.	.	4aa/	4e-X\
2B/	.	8gg/L	2d\
.	.	8aa/	.
.	.	8gg/	.
.	.	8ff/J	.
=30	=30	=30	=30
2B-X/	2C\	4ee/	2g\
.	.	8dd/L	.
.	.	8ee/J	.
4A/	2F\	8ff/L	2f\
.	.	8dd/	.
4A-X/	.	8cc/	.
.	.	8b/J	.
=31	=31	=31	=31
4G/	2E\	4a/	4g\
4c/	.	4raa	8a\L
.	.	.	8b-X\J
4G/	2E-X\	2raa	2cc\
4A/	.	.	.
=32	=32	=32	=32
4B-X/	2D\	2dd/	2f\
8A/L	.	.	.
8B-/J	.	.	.
4c/	4C\	2gg/	4e\
4d-X/	4BB\	.	4rc
!!LO:LB:g=original
=33	=33	=33	=33
4c/	4AA\	2ff/	2f\
8B-X/L	4.D\	.	.
8A/J	.	.	.
2G/	.	2ee/	2b-X\
.	8E\L	.	.
.	8D\	.	.
.	8C#X\J	.	.
=34	=34	=34	=34
2F/	2D\	2.dd/	4a\
.	.	.	8b-X\L
.	.	.	8a\J
2B-X/	4BB-X\	.	8g\L
.	.	.	8f\J
.	4C\	[4cc/	4e\
=35	=35	=35	=35
4A/	4FF\	4cc/]	1f\
4F/	8D\L	8b-X/L	.
.	8C\J	8a/J	.
[2d/	2BB\	4g/	.
.	.	4g#X/	.
=36	=36	=36	=36
8d/L]	1AA\	4a/	4f\
8A/	.	.	.
8G/	.	4raa	8e\L
8F/J	.	.	8d\J
4E/	.	2raa	4c#X\
4G/	.	.	8B\L
.	.	.	8c#\J
=37	=37	=37	=37
4F/	4D\	2a/	4d\
4rc	4C\	.	4e\
2rc	2BB-X\	2dd/	4f\
.	.	.	8f\L
.	.	.	8g#X\J
=38	=38	=38	=38
2E/	2.AA\	2cc#X/	8a\L
.	.	.	8e\
.	.	.	8a\
.	.	.	8g\J
2A/	.	2ccn/	4f#X\
.	4rEE	.	8e\L
.	.	.	8f#\J
!!LO:LB:g=original
=39	=39	=39	=39
2G/	1rEE	2b-X/	8g\L
.	.	.	8f\
.	.	.	8e\
.	.	.	8d\J
2A/	.	4a/	4c#X\
.	.	4g/	8Bn\L
.	.	.	8c#\J
=40	=40	=40	=40
4.D/	2BB-X\	8f/L	2.d\
.	.	8e/	.
.	.	8f/	.
8E/	.	8g/J	.
4F/	2FF\	2a/	.
4E-X/	.	.	4cn\
=41	=41	=41	=41
2D/	2GG\	8g/L	2B-X\
.	.	8a/	.
.	.	8g/	.
.	.	8f/J	.
2rc	2GG#X\	4e/	2Bn\
.	.	4d/	.
=42	=42	=42	=42
2A/	2.AA\	8c#X/L	8A\L
.	.	8e/	8c#\
.	.	8f/	8d\
.	.	8g/J	8e\J
2d/	.	4f/	4f\
.	4GG\	4b-X/	8g\L
.	.	.	8f\J
=43	=43	=43	=43
2c#X/	4GG\	1a/	4e\
.	4EE\	.	4g\
2cn/	8AA\L	.	8f#X\L
.	8GG\J	.	8e\J
.	4FF#Xm>\	.	4e-X\
=44	=44	=44	=44
2B-X/	2GG\	2g/	4d\
.	.	.	8e\L
.	.	.	8d\J
4A/	[2AA\	4f/	4c#X\
4G/	.	4e/	8B\L
.	.	.	8c#\J
!!LO:PB:g=original
=45	=45	=45	=45
4F/	2AA\]	4d/	4.d\
8D/L	.	8f/L	.
8E/J	.	8e/J	8c#X\
8F/L	2AA-X\	[2d/	4d\
8E/	.	.	.
8F/	.	.	4cn\
8F#X/J	.	.	.
=46	=46	=46	=46
2.G/	[1GG\	4d/]	1B\
.	.	8e/L	.
.	.	8f/J	.
.	.	4e/	.
4F/	.	4d/	.
=47	=47	=47	=47
2.E/	1GG\_	4c/	2c\
.	.	8cc/L	.
.	.	8b-X/J	.
.	.	[2a/	2c#X\
8F/L	.	.	.
8E/J	.	.	.
=48	=48	=48	=48
4F/	1GG\_	4a/]	2d\
8G/L	.	4b/	.
8F/J	.	.	.
4E/	.	4cc/	4e\
4A/	.	4raa	4f#X\
=49	=49	=49	=49
2G/	1GG\_	2b/	4g\
.	.	.	8d\L
.	.	.	8e\J
2D/	.	2b-X/	4f\
.	.	.	8g\L
.	.	.	8f\J
=50	=50	=50	=50
4C#X/	1GG\_	2a/	4e\
8D/L	.	.	8f\L
8Cn/J	.	.	8e\J
4BB/	.	4g/	2d\
8AA/L	.	4f/	.
8BB/J	.	.	.
!!LO:LB:g=original
=51	=51	=51	=51
2C/	1GG\_	1e/	8c\L
.	.	.	8B-X\
.	.	.	8A\
.	.	.	8G\J
2C#X/	.	.	4A\
.	.	.	4B-\
=52	=52	=52	=52
2D/	1GG\_	8f/L	4A\
.	.	8f#X/	.
.	.	8g/	4B\
.	.	8fn/J	.
4E/	.	4e/	2c\
4F#X/	.	4e-X/	.
=53	=53	=53	=53
1G/;	1GG\]	1d/;	1B\
*v	*v	*	*
=54||	=54||	=54||
1ryy	1ryy	2r
.	.	4r
.	.	4c\
=55	=55	=55
1ryy	1ryy	4d\
.	.	8e\L
.	.	8f#X\J
.	.	8g\L
.	.	8fn\
.	.	8e\
.	.	8d\J
=56	=56	=56
1ryy	1ryy	8c#X\L
.	.	8A\
.	.	8d\
.	.	8cn\J
.	.	8B\L
.	.	16c\L
.	.	16B\J
.	.	8A\
.	.	8B\J
!!LO:LB:g=original
=57	=57	=57
1ryy	2raa	8c\L
.	.	8e\
.	.	8g\
.	.	8f\J
.	4raa	8e\L
.	.	8f\
.	4g/	8e\
.	.	8d\J
=58	=58	=58
1ryy	4a/	8c\
.	.	4a\
.	8b/L	.
.	8cc#X/J	8g\
.	8dd/L	4f\
.	8ccn/	.
.	8b/	4d\
.	8a/J	.
=59	=59	=59
1ryy	8g#X/L	8e\L
.	8e/	8d\
.	8a/	8c\
.	8gn/J	8c#X\J
.	8f#X/L	4d\
.	16g/L	.
.	16f#/JJ	.
.	8e/L	4cn\
.	8f#/J	.
=60	=60	=60
*^	*	*
1ryy	2r	8g/L	4.B\
.	.	8d/	.
.	.	8g/	.
.	.	8fn/J	16A\LL
.	.	.	16B\JJ
.	4r	8e/L	8c\L
.	.	8f/	8d\
.	4C\	8g/	8e\
.	.	8ee/J	[8g\J
=61	=61	=61	=61
1ryy	4D\	4dd/	8g\L]
.	.	.	8f#X\
.	8E\L	4cc/	8g\
.	8F#X\J	.	8a\J
.	8G\L	4b/	4d\
.	8Fn\	.	.
.	8E\	8cc/L	8g\L
.	8D\J	8b-X/J	8fn\J
!!LO:LB:g=original
=62	=62	=62	=62
1ryy	8C#X\L	8a/L	8e\L
.	8AA\	8g/	8c#X\
.	8D\	8f/	8d\
.	8Cn\J	8f#X/J	8e-X\J
.	8BB\L	4g/	2d\
.	16C\L	.	.
.	16BB\J	.	.
.	8AA\	4fn/	.
.	8BB\J	.	.
!!LO:LB:g=original
=63	=63	=63	=63
2rc	8C\L	4e/	4c\
.	8E\	.	.
.	8G\	8d/L	4B\
.	8F\J	8a/J	.
4rc	8E\L	8g/L	8c\L
.	8D\	8f/J	8d\
4G/	8C\	[4e/	8e\
.	8BB-X\J	.	8d\J
=64	=64	=64	=64
4A/	2.AA\	8e/]	4c#X\
.	.	4a/	.
8B/L	.	.	8d\L
8c#X/J	.	8g/	8e\J
8d/L	.	4f/	8f\L
8cn/	.	.	8e\
8B-X/	[4D\	4ff/	8d\
8A/J	.	.	8cn\J
=65	=65	=65	=65
8G#X/L	4D\]	2ee/	4B\
8E/	.	.	.
8A/	8C\L	.	8c\L
8Gn/J	8C#X\J	.	8B-X\J
8F#X/L	[2D\	4dd/	4A\
16G/L	.	.	.
16F#/J	.	.	.
8E/	.	4cc/	4rc
8F#/J	.	.	.
=66	=66	=66	=66
2G/	8D\L]	[2b/	2rc
.	8GG\	.	.
.	8F\	.	.
.	8E\J	.	.
4F/	4D\	8b/L]	4rc
.	.	16a/L	.
.	.	16b/J	.
4E/	[4C\	8cc/	4c\
.	.	8b-X/J	.
=67	=67	=67	=67
4F#X/	8C\L]	2a/	4d\
.	8D\J	.	.
8E/L	4C\	.	8e\L
8E-X/J	.	.	8f#X\J
4D/	4BB\	2g/	8g\L
.	.	.	8fn\
[4G/	4BB-X\	.	8e\
.	.	.	8d\J
!!LO:LB:g=original
=68	=68	=68	=68
4G/]	4.AA\	4a/	8c#X\L
.	.	.	8A\
8F/L	.	4.d/	8d\
8F#X/J	8AA-X\	.	8cn\J
4G/	2GG\	.	8B\L
.	.	8e/	16c\L
.	.	.	16B\J
4D/	.	4f/	8A\
.	.	.	8B\J
=69	=69	=69	=69
4C/	4AA\	4e/	8c\L
.	.	.	8a\
4D/	4BB\	4raa	8g\
.	.	.	8f\J
8G/L	[2C\	4raa	8e\L
8F/J	.	.	8d\
[4E/	.	4g/	8c\
.	.	.	8B-X\J
=70	=70	=70	=70
4E/]	8C\L]	4a/	8A\
.	8C#X\	.	4a\
8F/L	8D\	8b/L	.
8G/J	8E\J	8cc#X/J	8g\
4A/	4F\	8dd/L	2f\
.	.	8ccn/	.
8d/L	[4D\	8b/	.
8c/J	.	8a/J	.
=71	=71	=71	=71
4B/	4D\]	8g#X/L	4e\
.	.	8e/	.
4E/	8C\L	8a/	4.A\
.	8C#X\J	8gn/J	.
2D/	2D\	8f#X/L	.
.	.	16g/L	8B\
.	.	16f#/J	.
.	.	8e/	4c\
.	.	8f#/J	.
=72	=72	=72	=72
8D/L	2GG\	4g/	1B\
8G/	.	.	.
8D/	.	4raa	.
8E/J	.	.	.
8F/L	4D\	2raa	.
16E/L	.	.	.
16F/J	.	.	.
8G/	8E\L	.	.
8F/J	8D\J	.	.
!!LO:LB:g=original
=73	=73	=73	=73
2E/	4C\	2g^^/	8c\L
.	.	.	8G\
.	4rEE	.	8c\
.	.	.	8B-X\J
8F/L	4rEE	2cc^^/	8A\L
8f/J	.	.	8a\J
8e/L	4C\	.	[4g\
8e-X/J	.	.	.
=74	=74	=74	=74
4d/	4D\	2b^^/	8g\L]
.	.	.	8f\
8G/L	8E\L	.	8e\
8A-X/J	8F\J	.	8d\J
4.G/	8G\L	2b-X^^/	8e\L
.	8F\	.	8f\J
.	8E\	.	[4g\
8F/	8D\J	.	.
=75	=75	=75	=75
4E/	8C#X\L	2a^^/	4g\]
.	8AA\	.	.
8F/L	8D\	.	8f\L
8F#X/J	8Cn\J	.	8e-X\J
[2G/	8BB\L	4g^^/	4d\
.	16C\L	.	.
.	16BB\J	.	.
.	8AA\	4f^^/	4rc
.	8BB\J	.	.
=76	=76	=76	=76
8G/L]	2C\	8e/L	2c^^\
8A/J	.	8f/	.
4G/	.	8e/	.
.	.	8ee/J	.
4rc	8BB\L	8dd/	2g^^\
.	8C\	4ee/	.
4G/	8BB\	.	.
.	8BB-X\J	[8dd/	.
=77	=77	=77	=77
4A/	4AA\	8dd/L]	2f#X^^\
.	.	8cc/	.
8B/L	2.D\	8b/	.
8c/J	.	8a/J	.
8d/L	.	8b/L	2fn^^\
8c/	.	8cc/J	.
8B/	.	4dd/	.
8A/J	.	.	.
!!LO:PB:g=original
=78	=78	=78	=78
8G#X/L	8E\L	8cc/L	2e^^\
8E/	8D\	8b/J	.
8A/	8C\	4a/	.
8Gn/J	8C#X\J	.	.
8F#X/L	2D\	4b/	4d^^\
16G/L	.	.	.
16F#/J	.	.	.
8E/	.	4a/	4c^^\
8F#/J	.	.	.
!!LO:LB:g=original
=79	=79	=79	=79
4.G/	8D\L	4g/	4B\
.	8F\	.	.
.	8E\	8gg/L	8c\L
16A/LL	8D\J	8ff/J	8d\J
16B/JJ	.	.	.
8c/L	4.C\	8ee/L	8e\L
8B-X/	.	8gg/	8d\
8A/	.	8ff/	8c\
8G/J	8C#X\	8ee/J	8B-X\J
=80	=80	=80	=80
8F/	4.D\	4dd/	8A\L
4f/	.	.	8a\
.	.	4raa	8b-X\
8e/	8C\	.	8a\J
2d/	4.BB\	2raa	8g#X\L
.	.	.	16a\L
.	.	.	16g#\J
.	.	.	8f#X\
.	8E\	.	8g#\J
=81	=81	=81	=81
4c/	8AA\L	2ee/	4a\
.	8A\	.	.
8d/L	8B\	.	8g#X\L
8c/J	8A\J	.	8a\J
8e/L	2G#X\	2b/	4b\
8d/	.	.	.
8e/	.	.	4rc
8f/J	.	.	.
=82	=82	=82	=82
1e/	8A\L	2cc/	2rc
.	8G#X\	.	.
.	8A\	.	.
.	8B-X\J	.	.
.	8A\L	2cc#X/	2e\
.	8AA\	.	.
.	8A\	.	.
.	8Gn\J	.	.
=83	=83	=83	=83
4.d/	8F\L	2dd/	2a\
.	8E\J	.	.
.	4F\	.	.
8A/	.	.	.
8B/L	4.E\	4.ee/	2g#X\
8c/J	.	.	.
4B/	.	.	.
.	8D\	8ff/	.
!!LO:LB:g=original
=84	=84	=84	=84
4.B-X/	8C#X\L	8ee/L	2gn\
.	8D\	8dd/	.
.	8E\	8cc#X/	.
[8A/	8AA\J	16b/L	.
.	.	16cc#/JJ	.
8A/L]	4.D\	8dd/L	2f\
8A/	.	8ccn/	.
8B-/	.	8b/	.
8c/J	8D#X\	[8a/J	.
!!LO:PB:g=original
=85	=85	=85	=85
4B/	4E\	8a/L]	4e\
.	.	8g#X/	.
4rc	8F#X\L	8a/	4d\
.	8G#X\J	8b/J	.
2rc	8A\L	4e/	2c\
.	8Gn\	.	.
.	8Fn\	[4a/	.
.	8E\J	.	.
=86	=86	=86	=86
2B/	8D\L	4a/]	4f\
.	8BB\	.	.
.	8E\	4g#X/	2.e\
.	8D\J	.	.
2e/	8C\L	4a/	.
.	16D\L	.	.
.	16C\J	.	.
.	8BB\	8g#/L	.
.	8C\J	8a/J	.
=87	=87	=87	=87
4d/	4D\	2b/	8f\L
.	.	.	16g\L
.	.	.	16f\JJ
4G#X/	8E\L	.	[4e\
.	8D\J	.	.
4A/	4C\	2ee/	8e\L]
.	.	.	8a\
8B/L	8BB\L	.	8g#X\
8A/J	8C\J	.	8a\J
=88	=88	=88	=88
4F/	2D\	2dd/	8b-X\L
.	.	.	8cc\
8G/L	.	.	8b-\
8F/J	.	.	8a\J
[2E/	4E\	4cc/	8g#X\L
.	.	.	16a\L
.	.	.	16g#\J
.	4D\	4bn/	8f#X\
.	.	.	8g#\J
=89	=89	=89	=89
8E/L]	2C\	[2a/	2a\
8e/	.	.	.
8f/	.	.	.
8e/J	.	.	.
8d/L	2F\	4a/]	2f\
8A/	.	.	.
8B-X/	.	4dd/	.
8A/J	.	.	.
=90	=90	=90	=90
4.G/	2E\	8cc/L	4g\
.	.	8dd/J	.
.	.	4cc/	8cc\L
[8c/	.	.	16b-X\L
.	.	.	16a\JJ
8c/L]	2E-X\	2raa	4.g\
8G/J	.	.	.
4A/	.	.	.
.	.	.	8g-X\
!!LO:LB:g=original
=91	=91	=91	=91
4B-X/	2D\	2b-X/	8f\L
.	.	.	8g\
4rc	.	.	8f\
.	.	.	8F\J
4rc	4C\	2e/	8G\L
.	.	.	8A\
4G/	4BB-X\	.	8G\
.	.	.	8d-X\J
=92	=92	=92	=92
4A/	4AA\	2f/	8c\
.	.	.	4f\
8B-X/L	[4D\	.	.
8c/J	.	.	8e-X\
8d/L	8D\L]	2f#X/	4d\
8c/	8E-X\	.	.
8B-/	8D\	.	4rc
8A/J	8C\J	.	.
=93	=93	=93	=93
8G/L	4.BB-X\	2g/	2rc
8D/	.	.	.
8G/	.	.	.
8F/J	8BB-\	.	.
8E/L	2C\	4a/	2c\
16F/L	.	.	.
16E/J	.	.	.
8D/	.	4b-X/	.
8E/J	.	.	.
=94	=94	=94	=94
8F/L	4.D\	4a/	2f\
8A/J	.	.	.
4B-X/	.	4f/	.
.	8D-X\	.	.
8c/L	[2C\	4g/	2e\
8B-/	.	.	.
8A/	.	8a/L	.
8G/J	.	8b-X/J	.
=95	=95	=95	=95
8A/L	2C\]	8cc/L	2e-X\
8B-X/	.	8b-X/	.
8c/	.	8a/	.
8B-/J	.	8g/J	.
8A/L	8D\L	8f#X/L	2d\
8F#X/	8C\	8d/	.
8G/	8BB-X\	8g/	.
8A-X/J	8BBn\J	8fn/J	.
!!LO:LB:g=original
=96	=96	=96	=96
4G/	[2C\	8e/L	4c\
.	.	16f/L	.
.	.	16e/J	.
4rc	.	8d/	4B-X\
.	.	8e/J	.
2rc	8C\L]	4f/	8A\L
.	8AA\	.	8c\
.	8D\	[4ff/	8B-\
.	8C\J	.	8A\J
!!LO:LB:g=original
=97	=97	=97	=97
2rc	8BB-X\L	4ff/]	2G\
.	16AA\L	.	.
.	16BB-\J	.	.
.	8C\	8ee/L	.
.	8BB-\J	8dd/J	.
4rc	[2AA\	8cc#X/L	2g\
.	.	16dd/L	.
.	.	16cc#/JJ	.
4E/	.	8b/L	.
.	.	8cc#/J	.
=98	=98	=98	=98
4F/	8AA\L]	1dd/	4f\
.	16BB-X\L	.	.
.	16AA\J	.	.
8G/L	8GG\	.	8b-X\L
8A/J	8FF\J	.	8a\J
8B-X/L	2GG\	.	8g\L
8A/	.	.	8a\J
8G/	.	.	[4b-\
8F/J	.	.	.
=99	=99	=99	=99
8E/L	1AA\	2cc#X/	4b-\]
8G/	.	.	.
8F/	.	.	8a\L
8E/J	.	.	[8g\J
4D/	.	4dd/	8g\L]
.	.	.	8f\
8C#X/L	.	8ee/L	8e\
8D/J	.	8ff/J	8d\J
=100	=100	=100	=100
[2B-X/	4GG\	8gg/L	8e-X\L
.	.	8ff/	8f\J
.	8G\L	8ee-X/	[4g\
.	8F\J	8dd/J	.
8B-/L]	4E\	8cc#X/L	8g\L]
8A/J	.	8a/	8c#X\
8F/L	4rEE	8dd/	8d\
8F#X/J	.	8ccn/J	8e-X\J
=101	=101	=101	=101
4G/	4rEE	8b-X/L	4.d\
.	.	16cc/L	.
.	.	16b-/JJ	.
4Fn/	4D\	8a/L	.
.	.	8dd/J	8a\
4G/	4E\	4cc#X/	8g\L
.	.	.	16a\L
.	.	.	16g\J
8A/L	8F\L	8dd/L	8f\
8B-X/J	8G\J	8ee/J	8e\J
!!LO:LB:g=original
=102	=102	=102	=102
2.A/	8A\L	8ff/L	2c#X\
.	8G\	8ee/	.
.	8F\	8aa/	.
.	8E\J	8gg/J	.
.	8D\L	8ff/L	4d\
.	8F\	8dd/	.
8G/L	8E\	8cc/	8e\L
8F/J	8D\J	8b-X/J	8f\J
=103	=103	=103	=103
8E/L	8C#X\L	8a/L	8g\L
8F/	8D\	8bn/	8f\
8G/	8E\	8cc#X/	8e\
8A/J	8F\J	8dd/J	8d\J
8B-X/	8G\L	8ee/L	8c#X\L
4.A/	8A\	8cc#X/J	8A\
.	8F\	4dd/	8d\
.	8F#X\J	.	8cn\J
=104	=104	=104	=104
4G/	8G\L	4ee-X/	8B-X\L
.	8GG\	.	16c\L
.	.	.	16B-\J
8A/L	8FF\	4dd/	8A\
8G/J	8GG\J	.	8B-\J
8E/L	[2AA\	4cc#X/	2A\
16F/L	.	.	.
16E/J	.	.	.
8D/	.	8b/L	.
8E/J	.	8cc#/J	.
=105	=105	=105	=105
4.F/	2.AA\_	4.dd/	8a\L
.	.	.	8f\
.	.	.	8a\
8E/	.	8cc#X/	[8g\J
4D/	.	4dd/	8g\L]
.	.	.	8f\
4rc	8AA\L]	4ccn/	8e\
.	8AA-X\J	.	8f#X\J
!!LO:LB:g=original
=106	=106	=106	=106
2G/	[1GG\	4b/	8g\L
.	.	.	8fn\J
.	.	8cc/L	[4e\
.	.	8b/J	.
2c/	.	2a/	8e\L]
.	.	.	8f\
.	.	.	8e\
.	.	.	8e-X\J
!!LO:LB:g=original
=107	=107	=107	=107
2B/	1GG\_	8g/L	2d\
.	.	8dd/	.
.	.	8ee/	.
.	.	8ff/J	.
2B-X/	.	8gg/L	2e\
.	.	8ff/	.
.	.	8ee/	.
.	.	8dd/J	.
=108	=108	=108	=108
2A/	1GG\_	8cc/L	4f\
.	.	8a/	.
.	.	8dd/	4f#X\
.	.	8cc/J	.
4G/	.	8b/L	4g\
.	.	16cc/L	.
.	.	16b/J	.
4d/	.	8a/	4fn\
.	.	8b/J	.
=109	=109	=109	=109
8c/L	1GG\_	4cc/	4e\
8B/	.	.	.
8A/	.	4ff/	4d\
8B/J	.	.	.
8c/L	.	4ee/	4c\
8E/	.	.	.
8F/	.	8dd/L	4A\
8F#X/J	.	8cc/J	.
=110	=110	=110	=110
8G/L	1GG\_	4b/	4d\
8Fn/	.	.	.
8E/	.	4cc/	4c\
8E-X/J	.	.	.
4D/	.	8g/L	4B\
.	.	8f/J	.
4En/	.	4e/	8c\L
.	.	.	8B\J
=111	=111	=111	=111
8F/L	1GG\_	8d/L	4A\
8F#X/	.	8e-X/	.
8G/	.	8d/	4B\
8Fn/J	.	8a/J	.
4E/	.	8g/L	[2c\
.	.	8g#X/	.
8F/L	.	8a/	.
8E/J	.	8gn/J	.
!!LO:PB:g=original
=112	=112	=112	=112
2D/	2GG\_	4f/	8c\L]
.	.	.	16B\L
.	.	.	16A\JJ
.	.	8g/L	4B\
.	.	8f/J	.
4C/	8GG\L]	2e/	4.c\
.	8GG#X\	.	.
8c/L	8AA\	.	.
8B-X/J	8GGn\J	.	8c#X\
=113	=113	=113	=113
8A/L	4FF\	4d/	[2d\
8B-X/J	.	.	.
4A/	8F\L	8dd/L	.
.	8F#X\J	8cc/J	.
4.G/	4G\	4b/	8d\L]
.	.	.	8f\
.	[4GG\	4raa	8e\
8F#/	.	.	8d\J
=114	=114	=114	=114
2E/	8GG\L]	2cc/	2c\
.	8GG#X\	.	.
.	8AA\	.	.
.	8BB-X\J	.	.
4.F/	4.AA\	2ff/	8cc\L
.	.	.	8dd\
.	.	.	8cc\
[8G/	8GGn\	.	8b\J
=115	=115	=115	=115
8G/L]	[1C\	2ee/	8cc\L
8G/J	.	.	8e\J
8A/L	.	.	8cc\L
8B-X/J	.	.	8b-X\J
8c/L	.	2ee-X/	8a\L
8B-/	.	.	8g\
8A/	.	.	8f#X\
8G/J	.	.	8g\J
=116	=116	=116	=116
8F#X/L	4C\]	2dd/	4a\
8D/	.	.	.
8G/	4BB\	.	[4g\
8Fn/J	.	.	.
8E/L	[2C\	4cc/	2g\]
16F/L	.	.	.
16E/J	.	.	.
8D/	.	4b-X/	.
8E/J	.	.	.
!!LO:LB:g=original
=117	=117	=117	=117
2F/	8C\L]	8a/L	4.f\
.	8AA\	8cc/	.
.	8D\	8bn/	.
!	!	!LO:TX:b:t=rall. .......	!
.	8C\J	8a/J	8e\
4G/	8BB\L	4g/	2d\
.	16C\L	.	.
.	16BB\J	.	.
4A/	8AA\	4f/	.
.	8BB\J	.	.
!!LO:LB:g=original
=118	=118	=118	=118
8G/L	1C\	8e/L	4.c\
8E/	.	8g/	.
8A/	.	8f/	.
8G/J	.	8e/J	8B-X\
8F#X/L	.	2d/	4A\
16E/L	.	.	.
16F#/J	.	.	.
8G/	.	.	4Bn\
8Fn/J	.	.	.
*v	*v	*	*
*	*v	*v
=119	=119
1E/ 1C/; 1GG\ 1CC\	1c/; 1G\
==	==
*-	*-
!!!system-decoration: {(s1,s2)}
!!!RDF**kern: > = above
!!!RDF**kern: < = below
!!!EED: Leszek Kubiak
!!!EEV: 2021-05-25
!!!ENC: Mateusz Solarz
!!!END: 2021-05-07
